z_dist/img/icons/crypto/elrond-EGLD.svg

<svg width="64" height="64" viewBox="0 0 64 64" fill="none" xmlns="http://www.w3.org/2000/svg">
<g clip-path="url(#clip0_257_1624)">
<rect width="64" height="64" rx="4" fill="white"/>
<path fill-rule="evenodd" clip-rule="evenodd" d="M43.1371 20.7331C42.9914 20.5874 42.904 20.4418 42.904 20.2378C42.904 20.0339 42.9914 19.8882 43.1371 19.7426C43.4284 19.4803 43.8945 19.4803 44.215 19.7426C44.3607 19.8882 44.4481 20.0339 44.4481 20.2378C44.4481 20.4418 44.3607 20.5874 44.215 20.7331C44.0694 20.8496 43.8654 20.937 43.6906 20.937C43.4867 20.9662 43.2827 20.9079 43.1371 20.7331Z" fill="#0D022B"/>
<path fill-rule="evenodd" clip-rule="evenodd" d="M41.2725 22.7434C41.156 22.5977 41.0686 22.452 41.0686 22.2481C41.0686 22.0441 41.156 21.8985 41.2725 21.7528C41.5347 21.4906 42.0009 21.4906 42.2631 21.7528C42.3796 21.8985 42.467 22.0441 42.467 22.2481C42.467 22.452 42.3796 22.5977 42.2631 22.7434C42.1174 22.8599 41.9717 22.9473 41.7678 22.9473C41.5639 22.9473 41.4182 22.8599 41.2725 22.7434Z" fill="#0D022B"/>
<path fill-rule="evenodd" clip-rule="evenodd" d="M39.2332 24.6662C39.1166 24.5497 39.0292 24.3749 39.0292 24.1709C39.0292 23.967 39.1166 23.8213 39.2332 23.6757C39.4954 23.4135 39.9615 23.4135 40.2237 23.6757C40.3403 23.7922 40.4277 23.967 40.4277 24.1709C40.4277 24.3749 40.3403 24.5205 40.2237 24.6662C40.0781 24.8119 39.9324 24.8701 39.7284 24.8701C39.5245 24.8701 39.3497 24.7827 39.2332 24.6662Z" fill="#0D022B"/>
<path fill-rule="evenodd" clip-rule="evenodd" d="M37.2812 26.6181C37.1355 26.5016 37.0481 26.3268 37.0481 26.1228C37.0481 25.9189 37.1355 25.7732 37.2812 25.6276C37.5725 25.3654 38.0386 25.3654 38.3591 25.6276C38.5048 25.7441 38.5922 25.9189 38.5922 26.1228C38.5922 26.3268 38.5048 26.5016 38.3591 26.6181C38.2134 26.7638 38.0095 26.822 37.8347 26.822C37.6308 26.822 37.456 26.7929 37.2812 26.6181Z" fill="#0D022B"/>
<path fill-rule="evenodd" clip-rule="evenodd" d="M35.4166 28.5703C35.271 28.4537 35.2127 28.2789 35.2127 28.075C35.2127 27.871 35.3001 27.7254 35.4166 27.5797C35.6788 27.3175 36.145 27.3175 36.4072 27.5797C36.5529 27.6962 36.6111 27.871 36.6111 28.075C36.6111 28.2789 36.5237 28.4537 36.4072 28.5703C36.2907 28.7159 36.1159 28.7742 35.9119 28.7742C35.7371 28.8033 35.5332 28.7451 35.4166 28.5703Z" fill="#0D022B"/>
<path fill-rule="evenodd" clip-rule="evenodd" d="M33.1733 30.0269C33.1733 29.823 33.2607 29.6773 33.3773 29.5316C33.6395 29.2694 34.1056 29.2694 34.3678 29.5316C34.5135 29.6773 34.5718 29.823 34.5718 30.0269C34.5718 30.2308 34.4844 30.3765 34.3678 30.5222C34.2513 30.6387 34.0765 30.7261 33.8725 30.7261C33.6686 30.7261 33.5229 30.6387 33.3773 30.5222C33.2316 30.4056 33.1733 30.2308 33.1733 30.0269Z" fill="#0D022B"/>
<path fill-rule="evenodd" clip-rule="evenodd" d="M29.5316 34.3386C29.4151 34.222 29.3277 34.0472 29.3277 33.8433C29.3277 33.6394 29.4151 33.4937 29.5316 33.348C29.7938 33.0858 30.26 33.0858 30.5222 33.348C30.6678 33.4937 30.7261 33.6394 30.7261 33.8433C30.7261 34.0472 30.6387 34.1929 30.5222 34.3386C30.4056 34.4842 30.2308 34.5425 30.0269 34.5425C29.8521 34.5716 29.6773 34.5134 29.5316 34.3386Z" fill="#0D022B"/>
<path fill-rule="evenodd" clip-rule="evenodd" d="M27.5214 36.2905C27.3757 36.1739 27.2883 35.9991 27.2883 35.7952C27.2883 35.5913 27.3757 35.4456 27.5214 35.2999C27.8127 35.0377 28.2789 35.0377 28.5993 35.2999C28.745 35.4456 28.8324 35.5913 28.8324 35.7952C28.8324 35.9991 28.745 36.1448 28.5993 36.2905C28.4537 36.4361 28.2497 36.4944 28.0749 36.4944C27.8419 36.5235 27.6671 36.4361 27.5214 36.2905Z" fill="#0D022B"/>
<path fill-rule="evenodd" clip-rule="evenodd" d="M25.6277 38.2717C25.5112 38.1551 25.4238 37.9803 25.4238 37.7764C25.4238 37.5725 25.5112 37.3977 25.6277 37.2811C25.8899 37.0189 26.356 37.0189 26.6183 37.2811C26.7348 37.3977 26.8222 37.5725 26.8222 37.7764C26.8222 37.9803 26.7348 38.126 26.6183 38.2717C26.4726 38.4173 26.3269 38.4756 26.123 38.4756C25.919 38.4756 25.8025 38.3882 25.6277 38.2717Z" fill="#0D022B"/>
<path fill-rule="evenodd" clip-rule="evenodd" d="M23.6758 40.2236C23.5301 40.107 23.4719 39.9322 23.4719 39.7283C23.4719 39.5244 23.5593 39.3787 23.6758 39.233C23.938 38.9708 24.4041 38.9708 24.6663 39.233C24.7829 39.3787 24.8703 39.5244 24.8703 39.7283C24.8703 39.9322 24.7829 40.107 24.6663 40.2236C24.5207 40.3693 24.375 40.4275 24.1711 40.4275C23.9963 40.4275 23.7923 40.3693 23.6758 40.2236Z" fill="#0D022B"/>
<path fill-rule="evenodd" clip-rule="evenodd" d="M21.6656 42.1755C21.5199 42.059 21.4325 41.8841 21.4325 41.6802C21.4325 41.4763 21.5199 41.3306 21.6656 41.1849C21.9569 40.9227 22.423 40.9227 22.6852 41.1849C22.8309 41.3306 22.9183 41.4763 22.9183 41.6802C22.9183 41.8841 22.8309 42.059 22.6852 42.1755C22.5396 42.292 22.3356 42.3794 22.1608 42.3794C21.9569 42.3794 21.7821 42.3212 21.6656 42.1755Z" fill="#0D022B"/>
<path fill-rule="evenodd" clip-rule="evenodd" d="M19.7428 44.1276C19.5971 43.982 19.5388 43.8363 19.5388 43.6324C19.5388 43.4284 19.6262 43.2828 19.7428 43.1371C20.005 42.8749 20.4711 42.8749 20.7333 43.1371C20.879 43.2828 20.9372 43.4284 20.9372 43.6324C20.9372 43.8363 20.8498 43.982 20.7333 44.1276C20.6168 44.2442 20.442 44.3316 20.238 44.3316C20.0924 44.3607 19.9176 44.2733 19.7428 44.1276Z" fill="#0D022B"/>
<path fill-rule="evenodd" clip-rule="evenodd" d="M20.7333 20.7331C20.8498 20.5874 20.9372 20.4418 20.9372 20.2378C20.9372 20.0339 20.8498 19.8882 20.7333 19.7426C20.4711 19.4803 20.005 19.4803 19.7428 19.7426C19.5971 19.8882 19.5388 20.0339 19.5388 20.2378C19.5388 20.4418 19.6262 20.5874 19.7428 20.7331C19.8593 20.8496 20.0341 20.937 20.238 20.937C20.442 20.9662 20.6168 20.9079 20.7333 20.7331Z" fill="#0D022B"/>
<path fill-rule="evenodd" clip-rule="evenodd" d="M22.6852 22.7434C22.8309 22.5977 22.9183 22.452 22.9183 22.2481C22.9183 22.0441 22.8309 21.8985 22.6852 21.7528C22.3939 21.4906 21.9277 21.4906 21.6073 21.7528C21.4616 21.8985 21.3742 22.0441 21.3742 22.2481C21.3742 22.452 21.4616 22.5977 21.6073 22.7434C21.7529 22.8599 21.9569 22.9473 22.1317 22.9473C22.3356 22.9182 22.5396 22.8599 22.6852 22.7434Z" fill="#0D022B"/>
<path fill-rule="evenodd" clip-rule="evenodd" d="M24.6663 24.6662C24.7829 24.5497 24.8703 24.3749 24.8703 24.1709C24.8703 23.967 24.7829 23.8213 24.6663 23.6757C24.4041 23.4135 23.938 23.4135 23.6758 23.6757C23.5593 23.7922 23.4719 23.967 23.4719 24.1709C23.4719 24.3749 23.5593 24.5205 23.6758 24.6662C23.8215 24.8119 23.9671 24.8701 24.1711 24.8701C24.3459 24.8701 24.5207 24.7827 24.6663 24.6662Z" fill="#0D022B"/>
<path fill-rule="evenodd" clip-rule="evenodd" d="M26.6183 26.6181C26.7348 26.5016 26.8222 26.3268 26.8222 26.1228C26.8222 25.9189 26.7348 25.7732 26.6183 25.6276C26.356 25.3654 25.8899 25.3654 25.6277 25.6276C25.5112 25.7441 25.4238 25.9189 25.4238 26.1228C25.4238 26.3268 25.5112 26.5016 25.6277 26.6181C25.7734 26.7638 25.919 26.822 26.123 26.822C26.2978 26.822 26.4726 26.7929 26.6183 26.6181Z" fill="#0D022B"/>
<path fill-rule="evenodd" clip-rule="evenodd" d="M28.5411 28.5703C28.6867 28.4537 28.7741 28.2789 28.7741 28.075C28.7741 27.871 28.6867 27.7254 28.5411 27.5797C28.2789 27.3175 27.7836 27.3175 27.5214 27.5797C27.3757 27.6962 27.2883 27.871 27.2883 28.075C27.2883 28.2789 27.3757 28.4537 27.5214 28.5703C27.6671 28.7159 27.871 28.7742 28.0458 28.7742C28.2206 28.8033 28.4245 28.7451 28.5411 28.5703Z" fill="#0D022B"/>
<path fill-rule="evenodd" clip-rule="evenodd" d="M30.7261 30.0269C30.7261 29.823 30.6387 29.6773 30.5222 29.5316C30.26 29.2694 29.7938 29.2694 29.5316 29.5316C29.386 29.6773 29.3277 29.823 29.3277 30.0269C29.3277 30.2308 29.4151 30.3765 29.5316 30.5222C29.6482 30.6387 29.823 30.7261 30.0269 30.7261C30.2308 30.7261 30.3765 30.6387 30.5222 30.5222C30.6678 30.4056 30.7261 30.2308 30.7261 30.0269Z" fill="#0D022B"/>
<path fill-rule="evenodd" clip-rule="evenodd" d="M32.4741 32.5031C32.6198 32.3574 32.6781 32.2118 32.6781 32.0078C32.6781 31.8039 32.5907 31.6582 32.4741 31.5126C32.2119 31.2504 31.7458 31.2504 31.4836 31.5126C31.3379 31.6582 31.2797 31.8039 31.2797 32.0078C31.2797 32.2118 31.3671 32.3574 31.4836 32.5031C31.6001 32.6196 31.7749 32.707 31.9789 32.707C32.1828 32.707 32.3576 32.6196 32.4741 32.5031Z" fill="#0D022B"/>
<path fill-rule="evenodd" clip-rule="evenodd" d="M34.4261 34.3386C34.5718 34.222 34.6592 34.0472 34.6592 33.8433C34.6592 33.6394 34.5718 33.4937 34.4261 33.348C34.1348 33.0858 33.6686 33.0858 33.4064 33.348C33.2607 33.4937 33.1733 33.6394 33.1733 33.8433C33.1733 34.0472 33.2607 34.1929 33.4064 34.3386C33.5521 34.4842 33.756 34.5425 33.9308 34.5425C34.0765 34.5716 34.2804 34.5134 34.4261 34.3386Z" fill="#0D022B"/>
<path fill-rule="evenodd" clip-rule="evenodd" d="M36.4072 36.2905C36.5237 36.1739 36.6111 35.9991 36.6111 35.7952C36.6111 35.5913 36.5237 35.4456 36.4072 35.2999C36.145 35.0377 35.6788 35.0377 35.4166 35.2999C35.3001 35.4456 35.2127 35.5913 35.2127 35.7952C35.2127 35.9991 35.3001 36.1448 35.4166 36.2905C35.5623 36.4361 35.708 36.4944 35.9119 36.4944C36.0576 36.5235 36.2615 36.4361 36.4072 36.2905Z" fill="#0D022B"/>
<path fill-rule="evenodd" clip-rule="evenodd" d="M38.3592 38.2717C38.4757 38.1551 38.5631 37.9803 38.5631 37.7764C38.5631 37.5725 38.4757 37.3977 38.3592 37.2811C38.0969 37.0189 37.6308 37.0189 37.3686 37.2811C37.2521 37.3977 37.1647 37.5725 37.1647 37.7764C37.1647 37.9803 37.2521 38.126 37.3686 38.2717C37.5143 38.4173 37.6599 38.4756 37.8639 38.4756C38.0678 38.4756 38.2135 38.3882 38.3592 38.2717Z" fill="#0D022B"/>
<path fill-rule="evenodd" clip-rule="evenodd" d="M40.1945 40.2236C40.3402 40.107 40.3985 39.9322 40.3985 39.7283C40.3985 39.5244 40.3111 39.3787 40.1945 39.233C39.9323 38.9708 39.4662 38.9708 39.204 39.233C39.0875 39.3787 39.0001 39.5244 39.0001 39.7283C39.0001 39.9322 39.0875 40.107 39.204 40.2236C39.3497 40.3693 39.4953 40.4275 39.6993 40.4275C39.8741 40.4275 40.078 40.3693 40.1945 40.2236Z" fill="#0D022B"/>
<path fill-rule="evenodd" clip-rule="evenodd" d="M42.2631 42.1755C42.4088 42.059 42.467 41.8841 42.467 41.6802C42.467 41.4763 42.3796 41.3306 42.2631 41.1849C42.0009 40.9227 41.5347 40.9227 41.2725 41.1849C41.1269 41.3306 41.0686 41.4763 41.0686 41.6802C41.0686 41.8841 41.156 42.059 41.2725 42.1755C41.3891 42.292 41.5639 42.3794 41.7678 42.3794C41.9717 42.3794 42.1465 42.3212 42.2631 42.1755Z" fill="#0D022B"/>
<path fill-rule="evenodd" clip-rule="evenodd" d="M44.215 44.1276C44.3607 43.982 44.4481 43.8363 44.4481 43.6324C44.4481 43.4284 44.3607 43.2828 44.215 43.1371C43.9237 42.8749 43.4576 42.8749 43.1954 43.1371C43.0497 43.2828 42.9623 43.4284 42.9623 43.6324C42.9623 43.8363 43.0497 43.982 43.1954 44.1276C43.341 44.2442 43.545 44.3316 43.7198 44.3316C43.8654 44.3607 44.0402 44.2733 44.215 44.1276Z" fill="#0D022B"/>
<path fill-rule="evenodd" clip-rule="evenodd" d="M25.3655 21.2867C27.3466 19.9757 29.5316 19.3639 31.9497 19.3348C34.3096 19.3348 36.4946 19.9757 38.5339 21.2867L42.7292 17.0915C39.4371 14.586 35.8828 13.3333 31.9497 13.3333C28.0167 13.3333 24.4041 14.586 21.1994 17.0915L25.3655 21.2867Z" fill="#0D022B"/>
<path fill-rule="evenodd" clip-rule="evenodd" d="M21.1703 38.5049C19.8301 36.4655 19.1892 34.3096 19.1892 31.9789C19.1892 29.6191 19.8301 27.4341 21.1703 25.453L17.0042 21.2869C14.5569 24.4916 13.3333 28.0459 13.3333 32.0081C13.3333 35.912 14.5569 39.4954 17.0333 42.7584L21.1703 38.5049Z" fill="#0D022B"/>
<path fill-rule="evenodd" clip-rule="evenodd" d="M38.5048 42.6709C36.5237 44.011 34.3387 44.7103 31.9789 44.7394C29.5608 44.7394 27.3466 44.0984 25.3655 42.7L21.1703 46.8661C24.4041 49.4008 28.0167 50.6535 31.9789 50.6244C35.9119 50.5953 39.4662 49.3134 42.6709 46.8661L38.5048 42.6709Z" fill="#0D022B"/>
<path fill-rule="evenodd" clip-rule="evenodd" d="M42.6127 25.3946C43.9528 27.434 44.652 29.6481 44.5938 32.0371C44.5646 34.3678 43.8946 36.4946 42.6127 38.4465L46.8079 42.6126C49.2843 39.4079 50.5662 35.8536 50.5662 31.9497C50.5953 27.9875 49.3426 24.375 46.8079 21.1411L42.6127 25.3946Z" fill="#0D022B"/>
<path fill-rule="evenodd" clip-rule="evenodd" d="M46.9827 43.9819C48.5851 43.9819 49.9252 45.2929 49.9252 46.9244C49.9252 48.5268 48.6142 49.8669 46.9827 49.8669C45.3804 49.8669 44.0402 48.5559 44.0402 46.9244C44.0402 45.2929 45.3512 43.9819 46.9827 43.9819Z" fill="#0D022B"/>
<path fill-rule="evenodd" clip-rule="evenodd" d="M16.975 43.9819C18.5774 43.9819 19.8884 45.2929 19.8884 46.9244C19.8884 48.5268 18.5774 49.8669 16.975 49.8669C15.3727 49.8669 14.0616 48.5559 14.0616 46.9244C14.0616 45.2929 15.3727 43.9819 16.975 43.9819Z" fill="#0D022B"/>
<path fill-rule="evenodd" clip-rule="evenodd" d="M47.041 13.9741C48.6433 13.9741 49.9544 15.2851 49.9544 16.9166C49.9544 18.5481 48.6433 19.8591 47.041 19.8591C45.4386 19.8591 44.1276 18.5481 44.1276 16.9166C44.1276 15.2851 45.4386 13.9741 47.041 13.9741Z" fill="#0D022B"/>
<path fill-rule="evenodd" clip-rule="evenodd" d="M16.9167 13.9741C18.5191 13.9741 19.8592 15.2851 19.8592 16.8875C19.8592 18.4898 18.5482 19.8009 16.9167 19.8009C15.3144 19.8009 13.9742 18.4898 13.9742 16.8875C13.9742 15.2851 15.2853 13.9741 16.9167 13.9741Z" fill="#0D022B"/>
</g>
<defs>
<clipPath id="clip0_257_1624">
<rect width="64" height="64" fill="white"/>
</clipPath>
</defs>
</svg>

<svg width="64" height="64" fill="none" xmlns="http://www.w3.org/2000/svg"><g clip-path="url(#clip0_257_1624)"><rect width="64" height="64" rx="4" fill="#fff"/><path fill-rule="evenodd" clip-rule="evenodd" d="M43.137 20.733c-.146-.146-.233-.291-.233-.495 0-.204.087-.35.233-.495.291-.263.758-.263 1.078 0 .146.145.233.29.233.495 0 .204-.087.35-.233.495a.908.908 0 01-.524.204.588.588 0 01-.554-.204zm-1.864 2.01c-.117-.145-.204-.291-.204-.495 0-.204.087-.35.203-.495a.722.722 0 01.991 0c.117.145.204.291.204.495 0 .204-.087.35-.204.495-.146.117-.291.204-.495.204-.204 0-.35-.087-.495-.204zm-2.04 1.923a.703.703 0 01-.204-.495c0-.204.088-.35.204-.495a.722.722 0 01.99 0 .702.702 0 01.205.495c0 .204-.088.35-.204.495a.639.639 0 01-.496.204.703.703 0 01-.495-.204zm-1.952 1.952a.622.622 0 01-.233-.495c0-.204.087-.35.233-.495.291-.263.758-.263 1.078 0a.622.622 0 01.233.495.622.622 0 01-.233.495.748.748 0 01-.524.204c-.204 0-.379-.03-.554-.204zm-1.864 1.952c-.146-.116-.204-.291-.204-.495 0-.204.087-.35.204-.495a.722.722 0 01.99 0c.146.116.204.291.204.495a.703.703 0 01-.204.495c-.116.146-.291.204-.495.204a.493.493 0 01-.495-.204zm-2.244 1.457c0-.204.088-.35.204-.495a.722.722 0 01.99 0 .64.64 0 01.205.495c0 .204-.088.35-.204.495a.703.703 0 01-.495.204c-.204 0-.35-.087-.496-.204-.145-.116-.204-.291-.204-.495zm-3.641 4.312a.703.703 0 01-.204-.496c0-.204.087-.35.204-.495a.722.722 0 01.99 0 .64.64 0 01.204.495c0 .204-.087.35-.204.496-.116.145-.291.203-.495.203-.175.03-.35-.029-.495-.203zm-2.011 1.951a.622.622 0 01-.233-.495c0-.204.088-.35.233-.495.292-.262.758-.262 1.078 0 .146.146.233.291.233.495 0 .204-.087.35-.233.495a.748.748 0 01-.524.204.633.633 0 01-.554-.203zm-1.893 1.982a.703.703 0 010-.99.722.722 0 01.99 0 .703.703 0 01.204.494c0 .204-.087.35-.204.496a.64.64 0 01-.495.204c-.204 0-.32-.088-.495-.204zm-1.952 1.952c-.146-.117-.204-.292-.204-.496 0-.204.087-.35.204-.495a.722.722 0 01.99 0c.117.146.204.291.204.495a.703.703 0 01-.204.496.639.639 0 01-.495.204c-.175 0-.379-.059-.495-.204zm-2.01 1.951a.622.622 0 01-.233-.495c0-.204.087-.35.233-.495.29-.262.757-.262 1.02 0 .145.146.232.291.232.495a.622.622 0 01-.233.495.908.908 0 01-.524.204c-.204 0-.379-.058-.495-.203zm-1.923 1.953a.639.639 0 01-.204-.496c0-.204.087-.35.204-.495a.722.722 0 01.99 0 .639.639 0 01.204.495c0 .204-.087.35-.204.496a.703.703 0 01-.495.204c-.146.029-.32-.059-.495-.204zm.99-23.395c.117-.146.204-.291.204-.495 0-.204-.087-.35-.204-.495a.722.722 0 00-.99 0 .639.639 0 00-.204.495c0 .204.087.35.204.495a.703.703 0 00.495.204c.204.03.379-.03.495-.204zm1.952 2.01c.146-.145.233-.291.233-.495 0-.204-.087-.35-.233-.495-.291-.262-.757-.262-1.078 0-.145.145-.233.291-.233.495 0 .204.088.35.233.495.146.117.35.204.525.204.204-.029.408-.087.553-.204zm1.981 1.923a.703.703 0 00.204-.495c0-.204-.087-.35-.204-.495a.722.722 0 00-.99 0 .703.703 0 00-.204.495c0 .204.087.35.204.495a.639.639 0 00.495.204c.175 0 .35-.087.495-.204zm1.952 1.952a.703.703 0 00.204-.495c0-.204-.087-.35-.204-.495a.722.722 0 00-.99 0 .703.703 0 000 .99.639.639 0 00.495.204c.175 0 .35-.03.495-.204zm1.923 1.952a.623.623 0 00.233-.495c0-.204-.087-.35-.233-.495-.262-.262-.757-.262-1.02 0a.622.622 0 00-.233.495c0 .204.088.379.233.495.146.146.35.204.525.204a.49.49 0 00.495-.204zm2.185 1.457c0-.204-.087-.35-.204-.495a.722.722 0 00-.99 0 .64.64 0 00-.204.495c0 .204.087.35.204.495a.703.703 0 00.495.204c.204 0 .35-.087.495-.204.146-.116.204-.291.204-.495zm1.748 2.476a.639.639 0 00.204-.495c0-.204-.087-.35-.204-.495a.722.722 0 00-.99 0 .639.639 0 00-.204.495c0 .204.087.35.204.495a.703.703 0 00.99 0zm1.952 1.836a.622.622 0 00.233-.496c0-.204-.087-.35-.233-.495-.291-.262-.757-.262-1.02 0-.145.146-.233.291-.233.495 0 .204.088.35.233.496.146.145.35.203.525.203.146.03.35-.029.495-.203zm1.981 1.951a.703.703 0 00.204-.495c0-.204-.087-.35-.204-.495a.722.722 0 00-.99 0c-.117.146-.204.291-.204.495 0 .204.087.35.204.495a.64.64 0 00.495.204c.146.03.35-.058.495-.203zm1.953 1.982a.703.703 0 000-.99.722.722 0 00-.991 0 .703.703 0 00-.204.494c0 .204.087.35.204.496a.64.64 0 00.495.204c.204 0 .35-.088.495-.204zm1.834 1.952c.146-.117.204-.292.204-.496 0-.204-.087-.35-.204-.495a.722.722 0 00-.99 0c-.117.146-.204.291-.204.495 0 .204.087.379.204.496a.639.639 0 00.495.204c.175 0 .379-.059.495-.204zm2.069 1.951c.146-.116.204-.29.204-.495 0-.204-.087-.35-.204-.495a.722.722 0 00-.99 0 .64.64 0 00-.204.495c0 .204.087.379.203.495a.703.703 0 00.496.204c.204 0 .379-.058.495-.203zm1.952 1.953c.146-.146.233-.292.233-.496 0-.204-.087-.35-.233-.495-.291-.262-.757-.262-1.02 0-.145.146-.233.291-.233.495 0 .204.088.35.233.496.146.116.35.204.525.204.145.029.32-.059.495-.204zM25.366 21.287c1.98-1.311 4.166-1.923 6.584-1.952 2.36 0 4.545.64 6.584 1.952l4.195-4.195c-3.292-2.506-6.846-3.759-10.78-3.759-3.932 0-7.545 1.253-10.75 3.758l4.166 4.196zM21.17 38.505c-1.34-2.04-1.98-4.195-1.98-6.526 0-2.36.64-4.545 1.98-6.526l-4.166-4.166c-2.447 3.205-3.67 6.759-3.67 10.721 0 3.904 1.223 7.487 3.7 10.75l4.136-4.253zm17.335 4.165c-1.981 1.341-4.166 2.04-6.526 2.07-2.418 0-4.632-.642-6.613-2.04l-4.196 4.166c3.234 2.535 6.847 3.788 10.809 3.758 3.933-.029 7.487-1.31 10.692-3.758l-4.166-4.195zm4.108-17.275c1.34 2.039 2.039 4.253 1.98 6.642-.028 2.33-.698 4.458-1.98 6.41l4.195 4.166c2.476-3.205 3.758-6.76 3.758-10.663.03-3.962-1.223-7.575-3.758-10.809l-4.195 4.254zm4.37 18.587a2.953 2.953 0 012.942 2.942 2.953 2.953 0 01-2.942 2.943 2.953 2.953 0 01-2.943-2.943 2.934 2.934 0 012.943-2.942zm-30.008 0c1.602 0 2.913 1.31 2.913 2.942 0 1.603-1.31 2.943-2.913 2.943-1.602 0-2.913-1.311-2.913-2.943 0-1.631 1.31-2.942 2.913-2.942zm30.066-30.008c1.602 0 2.913 1.311 2.913 2.943 0 1.631-1.31 2.942-2.913 2.942-1.602 0-2.913-1.31-2.913-2.942 0-1.632 1.31-2.943 2.913-2.943zm-30.124 0c1.602 0 2.942 1.311 2.942 2.913 0 1.603-1.31 2.914-2.942 2.914-1.603 0-2.943-1.311-2.943-2.913 0-1.603 1.311-2.914 2.943-2.914z" fill="#0D022B"/></g><defs><clipPath id="clip0_257_1624"><path fill="#fff" d="M0 0h64v64H0z"/></clipPath></defs></svg>
